Newaita-dark/apps/64/gnome-todo.svg

<svg height="64" viewBox="0 0 64 64" width="64" xmlns="http://www.w3.org/2000/svg" xmlns:xlink="http://www.w3.org/1999/xlink"><linearGradient id="a" gradientUnits="userSpaceOnUse" x1="30.43" x2="30.43" y1="56.067872" y2="58.71396000006"><stop offset="0" stop-opacity=".27451"/><stop offset="1" stop-opacity="0"/></linearGradient><linearGradient id="b"><stop offset="0" stop-opacity=".313726"/><stop offset=".222222" stop-opacity=".27451"/><stop offset="1" stop-opacity="0"/></linearGradient><radialGradient id="c" cx="450.908936" cy="189.579361" gradientTransform="matrix(.00000035 -.156265 -.281277 -.0000002 102.938256 127.190665)" gradientUnits="userSpaceOnUse" r="21.166656" xlink:href="#b"/><radialGradient id="d" cx="450.908936" cy="189.579361" gradientTransform="matrix(-.00000035 .156265 .281277 .0000002 -42.078267 -15.054958)" gradientUnits="userSpaceOnUse" r="21.166656" xlink:href="#b"/><radialGradient id="e" cx="450.908936" cy="189.579361" gradientTransform="matrix(-.00000035 -.156265 .281277 -.0000002 -42.078267 127.190665)" gradientUnits="userSpaceOnUse" r="21.166656" xlink:href="#b"/><radialGradient id="f" cx="450.908936" cy="189.579361" gradientTransform="matrix(.00000035 .156265 -.281277 .0000002 102.938252 -15.054959)" gradientUnits="userSpaceOnUse" r="21.166656" xlink:href="#b"/><linearGradient id="g" gradientUnits="userSpaceOnUse" x1="19.84565499994" x2="19.84565499994" y1="56.067868" y2="5.79221000013"><stop offset="0" stop-color="#ab47bc"/><stop offset="1" stop-color="#ba68c8"/></linearGradient><linearGradient id="h"><stop offset="0" stop-color="#e0e0e0"/><stop offset="1" stop-color="#eee"/></linearGradient><linearGradient id="i" gradientUnits="userSpaceOnUse" x1="30.43000112469" x2="30.43000500006" xlink:href="#h" y1="56.067868" y2="5.79220799994"/><linearGradient id="j" gradientUnits="userSpaceOnUse" x1="30.430012" x2="30.430012" xlink:href="#h" y1="56.06789790428" y2="5.79222438278"/><path d="m10.585938 55.871094h39.691406v2.941406h-39.691406zm0 0" fill="url(#a)"/><path d="m50.277344 56.066406h5.289062v-2.644531h-5.289062zm0 0" fill="url(#c)"/><path d="m10.585938 56.066406h-5.292969v2.648438h5.292969zm0 0" fill="url(#d)"/><path d="m10.585938 56.066406h-5.292969v-2.644531h5.292969zm0 0" fill="url(#e)"/><path d="m50.277344 56.066406h5.289062v2.648438h-5.289062zm0 0" fill="url(#f)"/><path d="m7.9375 5.792969h44.984375c1.460937 0 2.644531 1.183593 2.644531 2.644531v44.984375c0 1.460937-1.183594 2.644531-2.644531 2.644531h-44.984375c-1.460938 0-2.644531-1.183594-2.644531-2.644531v-44.984375c0-1.460938 1.183593-2.644531 2.644531-2.644531zm0 0" fill="url(#g)"/><path d="m7.9375 6c-1.464844 0-2.644531 1.179688-2.644531 2.648438v.328124c0-1.464843 1.179687-2.648437 2.644531-2.644531h44.984375c1.464844-.003906 2.644531 1.179688 2.644531 2.644531v-.328124c0-1.46875-1.179687-2.648438-2.644531-2.648438zm0 0" fill="#e6e6e6" fill-opacity=".392157"/><path d="m7.9375 55.863281c-1.464844 0-2.644531-1.179687-2.644531-2.644531v-.332031c0 1.464843 1.179687 2.644531 2.644531 2.644531h44.984375c1.464844 0 2.644531-1.179688 2.644531-2.644531v.332031c0 1.464844-1.179687 2.644531-2.644531 2.644531zm0 0" fill-opacity=".196078"/><path d="m63.493937-168.660675h359.840637c11.686384 0 21.154229 9.467846 21.154229 21.15423v359.840637c0 11.686384-9.467845 21.154229-21.154229 21.154229h-359.840637c-11.686384 0-21.15423-9.467845-21.15423-21.154229v-359.840637c0-11.686384 9.467846-21.15423 21.15423-21.15423zm0 0" fill="none" stroke="#212121" stroke-linecap="round" stroke-width="3" transform="matrix(.125012 0 0 .125012 0 26.877566)"/><path d="m58.160156 12.34375c-.695312.019531-1.359375.3125-1.84375.8125l-25.996094 25.992188-10.015624-8.902344c-.714844-.652344-1.722657-.871094-2.644532-.570313-.921875.296875-1.609375 1.074219-1.800781 2.023438s.144531 1.925781.878906 2.558593l11.910157 10.585938c1.058593.945312 2.675781.898438 3.679687-.109375l27.785156-27.78125c.792969-.773437 1.03125-1.953125.601563-2.972656-.433594-1.019531-1.445313-1.671875-2.554688-1.636719zm0 0" fill="url(#i)"/><path d="m58.160156 12.34375c-.695312.019531-1.359375.3125-1.84375.8125l-25.996094 25.992188-10.015624-8.902344c-.855469-.785156-2.121094-.925782-3.128907-.355469-1.011719.570313-1.542969 1.726563-1.3125 2.863281.1875-.949218.875-1.722656 1.796875-2.023437s1.929688-.082031 2.644532.574219l10.015624 8.902343 25.996094-25.996093c.484375-.5 1.148438-.789063 1.84375-.8125 1.308594-.039063 2.457032.875 2.710938 2.15625.164062-.800782-.050782-1.632813-.578125-2.261719-.527344-.625-1.3125-.972657-2.132813-.949219zm0 0" fill="#fff" fill-opacity=".954839"/><path d="m55.566406 21.546875-23.238281 23.238281c-1.003906 1.003906-2.621094 1.050782-3.679687.109375l-11.910157-10.585937c-.414062-.359375-.710937-.839844-.84375-1.371094-.253906.984375.074219 2.03125.84375 2.695312l11.910157 10.582032c1.058593.945312 2.675781.898437 3.679687-.105469l23.238281-23.242187zm0 0" fill-opacity=".235294"/><path d="m465.236822-116.259429c-5.561969.156235-10.873961 2.499761-14.748591 6.499379l-207.948892 207.917645-80.11735-71.21195c-5.718203-5.218251-13.779934-6.968084-21.154229-4.562064-7.374296 2.374773-12.873771 8.592929-14.404875 16.185954s1.15614 15.404779 7.030579 20.466796l95.272152 84.679413c8.467941 7.561778 21.404206 7.186814 29.434689-.874916l222.260025-222.228778c6.343144-6.186909 8.249212-15.623508 4.812041-23.77898-3.468419-8.155471-11.561396-13.373722-20.435549-13.092499zm0 0" fill="none" stroke="#212121" stroke-linecap="round" stroke-linejoin="round" stroke-width="3" transform="matrix(.125012 0 0 .125012 0 26.877566)"/><path d="m13.230469 10.335938c-1.867188 0-3.394531 1.527343-3.394531 3.394531v34.398437c0 1.871094 1.527343 3.398438 3.394531 3.398438h34.398437c1.867188 0 3.398438-1.527344 3.398438-3.398438v-18.292968l-1.5 1.5v16.792968c0 1.0625-.835938 1.898438-1.898438 1.898438h-34.398437c-1.0625 0-1.894531-.835938-1.894531-1.898438v-34.398437c0-1.0625.832031-1.894531 1.894531-1.894531h34.398437c1.0625 0 1.898438.832031 1.898438 1.894531v2.417969l1.5-1.5v-.917969c0-1.867188-1.53125-3.394531-3.398438-3.394531zm0 0" fill="url(#j)"/><path d="m13.230469 10.335938c-1.867188 0-3.394531 1.527343-3.394531 3.394531v.558593c0-1.867187 1.527343-3.394531 3.394531-3.394531h34.398437c1.867188 0 3.398438 1.527344 3.398438 3.394531v-.558593c0-1.867188-1.53125-3.394531-3.398438-3.394531zm37.796875 19.5-1.5 1.5v.558593l1.5-1.5zm-39.691406 18.292968v.558594c0 1.0625.832031 1.898438 1.894531 1.898438h34.398437c1.0625 0 1.898438-.835938 1.898438-1.898438v-.558594c0 1.0625-.835938 1.898438-1.898438 1.898438h-34.398437c-1.0625 0-1.894531-.835938-1.894531-1.898438zm0 0" fill="#fafafa"/><path d="m13.230469 11.910156c-1.0625 0-1.894531.832032-1.894531 1.894532v.992187c0-1.0625.832031-1.894531 1.894531-1.894531h34.398437c1.0625 0 1.898438.832031 1.898438 1.894531v-.992187c0-1.0625-.835938-1.894532-1.898438-1.894532zm37.792969 2.8125-1.496094 1.5v.992188l1.5-1.5v-.917969c0-.023437-.003906-.050781-.003906-.074219zm-41.1875 33.480469v.992187c0 1.867188 1.527343 3.398438 3.394531 3.398438h34.398437c1.867188 0 3.398438-1.53125 3.398438-3.398438v-.992187c0 1.867187-1.53125 3.398437-3.398438 3.398437h-34.398437c-1.867188 0-3.394531-1.53125-3.394531-3.398437zm0 0" fill-opacity=".235294"/><path d="m400.001193 312.48986c-56.451305 0-102.628 46.176695-102.628 102.628v1039.979482c0 56.569404 46.176695 102.746099 102.628 102.746099h1039.979482c56.451305 0 102.746099-46.176695 102.746099-102.746099v-553.057451l-45.350003 45.350003v507.707448c0 32.122918-25.273178 57.396097-57.396096 57.396097h-1039.979482c-32.122918 0-57.277998-25.273179-57.277998-57.396097v-1039.979482c0-32.122918 25.15508-57.277997 57.277998-57.277997h1039.979482c32.122918 0 57.396096 25.155079 57.396096 57.277997v73.103259l45.350003-45.350002v-27.753257c0-56.451305-46.294794-102.628-102.746099-102.628zm0 0" fill="none" stroke="#212121" stroke-linecap="round" stroke-linejoin="round" stroke-width="11.338583" transform="scale(.0330761)"/></svg>

<?xml version="1.0" encoding="UTF-8"?>
<svg xmlns="http://www.w3.org/2000/svg" xmlns:xlink="http://www.w3.org/1999/xlink" width="64px" height="64px" viewBox="0 0 64 64" version="1.1">
<defs>
<linearGradient id="linear0" gradientUnits="userSpaceOnUse" x1="254" y1="233.5" x2="254" y2="254.666672" gradientTransform="matrix(0.125012,0,0,0.125012,-1.323048,26.87757)">
<stop offset="0" style="stop-color:rgb(0%,0%,0%);stop-opacity:0.27451;"/>
<stop offset="1" style="stop-color:rgb(0%,0%,0%);stop-opacity:0;"/>
</linearGradient>
<radialGradient id="radial0" gradientUnits="userSpaceOnUse" cx="450.908936" cy="189.579361" fx="450.908936" fy="189.579361" r="21.166656" gradientTransform="matrix(0.000000348341,-0.156265,-0.281277,-0.000000203077,102.938256,127.190665)">
<stop offset="0" style="stop-color:rgb(0%,0%,0%);stop-opacity:0.313726;"/>
<stop offset="0.222222" style="stop-color:rgb(0%,0%,0%);stop-opacity:0.27451;"/>
<stop offset="1" style="stop-color:rgb(0%,0%,0%);stop-opacity:0;"/>
</radialGradient>
<radialGradient id="radial1" gradientUnits="userSpaceOnUse" cx="450.908936" cy="189.579361" fx="450.908936" fy="189.579361" r="21.166656" gradientTransform="matrix(-0.000000348341,0.156265,0.281277,0.000000203077,-42.078267,-15.054958)">
<stop offset="0" style="stop-color:rgb(0%,0%,0%);stop-opacity:0.313726;"/>
<stop offset="0.222222" style="stop-color:rgb(0%,0%,0%);stop-opacity:0.27451;"/>
<stop offset="1" style="stop-color:rgb(0%,0%,0%);stop-opacity:0;"/>
</radialGradient>
<radialGradient id="radial2" gradientUnits="userSpaceOnUse" cx="450.908936" cy="189.579361" fx="450.908936" fy="189.579361" r="21.166656" gradientTransform="matrix(-0.000000348341,-0.156265,0.281277,-0.000000203077,-42.078267,127.190665)">
<stop offset="0" style="stop-color:rgb(0%,0%,0%);stop-opacity:0.313726;"/>
<stop offset="0.222222" style="stop-color:rgb(0%,0%,0%);stop-opacity:0.27451;"/>
<stop offset="1" style="stop-color:rgb(0%,0%,0%);stop-opacity:0;"/>
</radialGradient>
<radialGradient id="radial3" gradientUnits="userSpaceOnUse" cx="450.908936" cy="189.579361" fx="450.908936" fy="189.579361" r="21.166656" gradientTransform="matrix(0.000000348341,0.156265,-0.281277,0.000000203077,102.938252,-15.054959)">
<stop offset="0" style="stop-color:rgb(0%,0%,0%);stop-opacity:0.313726;"/>
<stop offset="0.222222" style="stop-color:rgb(0%,0%,0%);stop-opacity:0.27451;"/>
<stop offset="1" style="stop-color:rgb(0%,0%,0%);stop-opacity:0;"/>
</radialGradient>
<linearGradient id="linear1" gradientUnits="userSpaceOnUse" x1="169.333328" y1="233.5" x2="169.333328" y2="-168.666656" gradientTransform="matrix(0.125012,0,0,0.125012,-1.323043,26.877566)">
<stop offset="0" style="stop-color:rgb(67.058825%,27.843139%,73.725492%);stop-opacity:1;"/>
<stop offset="1" style="stop-color:rgb(72.941178%,40.784314%,78.431374%);stop-opacity:1;"/>
</linearGradient>
<linearGradient id="linear2" gradientUnits="userSpaceOnUse" x1="243.416641" y1="233.5" x2="243.416672" y2="-168.666672" gradientTransform="matrix(0.125012,0,0,0.125012,0,26.877566)">
<stop offset="0" style="stop-color:rgb(87.843138%,87.843138%,87.843138%);stop-opacity:1;"/>
<stop offset="1" style="stop-color:rgb(93.333334%,93.333334%,93.333334%);stop-opacity:1;"/>
</linearGradient>
<linearGradient id="linear3" gradientUnits="userSpaceOnUse" x1="920" y1="1695.118164" x2="920" y2="175.118118" gradientTransform="matrix(0.0330761,0,0,0.0330761,0,0)">
<stop offset="0" style="stop-color:rgb(87.843138%,87.843138%,87.843138%);stop-opacity:1;"/>
<stop offset="1" style="stop-color:rgb(93.333334%,93.333334%,93.333334%);stop-opacity:1;"/>
</linearGradient>
</defs>
<g id="surface1">
<path style=" stroke:none;fill-rule:nonzero;fill:url(#linear0);" d="M 10.585938 55.871094 L 50.277344 55.871094 L 50.277344 58.8125 L 10.585938 58.8125 Z M 10.585938 55.871094 "/>
<path style=" stroke:none;fill-rule:nonzero;fill:url(#radial0);" d="M 50.277344 56.066406 L 55.566406 56.066406 L 55.566406 53.421875 L 50.277344 53.421875 Z M 50.277344 56.066406 "/>
<path style=" stroke:none;fill-rule:nonzero;fill:url(#radial1);" d="M 10.585938 56.066406 L 5.292969 56.066406 L 5.292969 58.714844 L 10.585938 58.714844 Z M 10.585938 56.066406 "/>
<path style=" stroke:none;fill-rule:nonzero;fill:url(#radial2);" d="M 10.585938 56.066406 L 5.292969 56.066406 L 5.292969 53.421875 L 10.585938 53.421875 Z M 10.585938 56.066406 "/>
<path style=" stroke:none;fill-rule:nonzero;fill:url(#radial3);" d="M 50.277344 56.066406 L 55.566406 56.066406 L 55.566406 58.714844 L 50.277344 58.714844 Z M 50.277344 56.066406 "/>
<path style=" stroke:none;fill-rule:nonzero;fill:url(#linear1);" d="M 7.9375 5.792969 L 52.921875 5.792969 C 54.382812 5.792969 55.566406 6.976562 55.566406 8.4375 L 55.566406 53.421875 C 55.566406 54.882812 54.382812 56.066406 52.921875 56.066406 L 7.9375 56.066406 C 6.476562 56.066406 5.292969 54.882812 5.292969 53.421875 L 5.292969 8.4375 C 5.292969 6.976562 6.476562 5.792969 7.9375 5.792969 Z M 7.9375 5.792969 "/>
<path style=" stroke:none;fill-rule:nonzero;fill:rgb(90.196079%,90.196079%,90.196079%);fill-opacity:0.392157;" d="M 7.9375 6 C 6.472656 6 5.292969 7.179688 5.292969 8.648438 L 5.292969 8.976562 C 5.292969 7.511719 6.472656 6.328125 7.9375 6.332031 L 52.921875 6.332031 C 54.386719 6.328125 55.566406 7.511719 55.566406 8.976562 L 55.566406 8.648438 C 55.566406 7.179688 54.386719 6 52.921875 6 Z M 7.9375 6 "/>
<path style=" stroke:none;fill-rule:nonzero;fill:rgb(0%,0%,0%);fill-opacity:0.196078;" d="M 7.9375 55.863281 C 6.472656 55.863281 5.292969 54.683594 5.292969 53.21875 L 5.292969 52.886719 C 5.292969 54.351562 6.472656 55.53125 7.9375 55.53125 L 52.921875 55.53125 C 54.386719 55.53125 55.566406 54.351562 55.566406 52.886719 L 55.566406 53.21875 C 55.566406 54.683594 54.386719 55.863281 52.921875 55.863281 Z M 7.9375 55.863281 "/>
<path style="fill:none;stroke-width:3;stroke-linecap:round;stroke-linejoin:miter;stroke:rgb(12.941177%,12.941177%,12.941177%);stroke-opacity:1;stroke-miterlimit:4;" d="M 63.493937 -168.660675 L 423.334574 -168.660675 C 435.020958 -168.660675 444.488803 -159.192829 444.488803 -147.506445 L 444.488803 212.334192 C 444.488803 224.020576 435.020958 233.488421 423.334574 233.488421 L 63.493937 233.488421 C 51.807553 233.488421 42.339707 224.020576 42.339707 212.334192 L 42.339707 -147.506445 C 42.339707 -159.192829 51.807553 -168.660675 63.493937 -168.660675 Z M 63.493937 -168.660675 " transform="matrix(0.125012,0,0,0.125012,0,26.877566)"/>
<path style=" stroke:none;fill-rule:nonzero;fill:url(#linear2);" d="M 58.160156 12.34375 C 57.464844 12.363281 56.800781 12.65625 56.316406 13.15625 L 30.320312 39.148438 L 20.304688 30.246094 C 19.589844 29.59375 18.582031 29.375 17.660156 29.675781 C 16.738281 29.972656 16.050781 30.75 15.859375 31.699219 C 15.667969 32.648438 16.003906 33.625 16.738281 34.257812 L 28.648438 44.84375 C 29.707031 45.789062 31.324219 45.742188 32.328125 44.734375 L 60.113281 16.953125 C 60.90625 16.179688 61.144531 15 60.714844 13.980469 C 60.28125 12.960938 59.269531 12.308594 58.160156 12.34375 Z M 58.160156 12.34375 "/>
<path style=" stroke:none;fill-rule:nonzero;fill:rgb(100%,100%,100%);fill-opacity:0.954839;" d="M 58.160156 12.34375 C 57.464844 12.363281 56.800781 12.65625 56.316406 13.15625 L 30.320312 39.148438 L 20.304688 30.246094 C 19.449219 29.460938 18.183594 29.320312 17.175781 29.890625 C 16.164062 30.460938 15.632812 31.617188 15.863281 32.753906 C 16.050781 31.804688 16.738281 31.03125 17.660156 30.730469 C 18.582031 30.429688 19.589844 30.648438 20.304688 31.304688 L 30.320312 40.207031 L 56.316406 14.210938 C 56.800781 13.710938 57.464844 13.421875 58.160156 13.398438 C 59.46875 13.359375 60.617188 14.273438 60.871094 15.554688 C 61.035156 14.753906 60.820312 13.921875 60.292969 13.292969 C 59.765625 12.667969 58.980469 12.320312 58.160156 12.34375 Z M 58.160156 12.34375 "/>
<path style=" stroke:none;fill-rule:nonzero;fill:rgb(0%,0%,0%);fill-opacity:0.235294;" d="M 55.566406 21.546875 L 32.328125 44.785156 C 31.324219 45.789062 29.707031 45.835938 28.648438 44.894531 L 16.738281 34.308594 C 16.324219 33.949219 16.027344 33.46875 15.894531 32.9375 C 15.640625 33.921875 15.96875 34.96875 16.738281 35.632812 L 28.648438 46.214844 C 29.707031 47.160156 31.324219 47.113281 32.328125 46.109375 L 55.566406 22.867188 Z M 55.566406 21.546875 "/>
<path style="fill:none;stroke-width:3;stroke-linecap:round;stroke-linejoin:round;stroke:rgb(12.941177%,12.941177%,12.941177%);stroke-opacity:1;stroke-miterlimit:4;" d="M 465.236822 -116.259429 C 459.674853 -116.103194 454.362861 -113.759668 450.488231 -109.76005 L 242.539339 98.157595 L 162.421989 26.945645 C 156.703786 21.727394 148.642055 19.977561 141.26776 22.383581 C 133.893464 24.758354 128.393989 30.97651 126.862885 38.569535 C 125.331781 46.16256 128.019025 53.974314 133.893464 59.036331 L 229.165616 143.715744 C 237.633557 151.277522 250.569822 150.902558 258.600305 142.840828 L 480.86033 -79.38795 C 487.203474 -85.574859 489.109542 -95.011458 485.672371 -103.16693 C 482.203952 -111.322401 474.110975 -116.540652 465.236822 -116.259429 Z M 465.236822 -116.259429 " transform="matrix(0.125012,0,0,0.125012,0,26.877566)"/>
<path style=" stroke:none;fill-rule:nonzero;fill:url(#linear3);" d="M 13.230469 10.335938 C 11.363281 10.335938 9.835938 11.863281 9.835938 13.730469 L 9.835938 48.128906 C 9.835938 50 11.363281 51.527344 13.230469 51.527344 L 47.628906 51.527344 C 49.496094 51.527344 51.027344 50 51.027344 48.128906 L 51.027344 29.835938 L 49.527344 31.335938 L 49.527344 48.128906 C 49.527344 49.191406 48.691406 50.027344 47.628906 50.027344 L 13.230469 50.027344 C 12.167969 50.027344 11.335938 49.191406 11.335938 48.128906 L 11.335938 13.730469 C 11.335938 12.667969 12.167969 11.835938 13.230469 11.835938 L 47.628906 11.835938 C 48.691406 11.835938 49.527344 12.667969 49.527344 13.730469 L 49.527344 16.148438 L 51.027344 14.648438 L 51.027344 13.730469 C 51.027344 11.863281 49.496094 10.335938 47.628906 10.335938 Z M 13.230469 10.335938 "/>
<path style=" stroke:none;fill-rule:nonzero;fill:rgb(98.039216%,98.039216%,98.039216%);fill-opacity:1;" d="M 13.230469 10.335938 C 11.363281 10.335938 9.835938 11.863281 9.835938 13.730469 L 9.835938 14.289062 C 9.835938 12.421875 11.363281 10.894531 13.230469 10.894531 L 47.628906 10.894531 C 49.496094 10.894531 51.027344 12.421875 51.027344 14.289062 L 51.027344 13.730469 C 51.027344 11.863281 49.496094 10.335938 47.628906 10.335938 Z M 51.027344 29.835938 L 49.527344 31.335938 L 49.527344 31.894531 L 51.027344 30.394531 Z M 11.335938 48.128906 L 11.335938 48.6875 C 11.335938 49.75 12.167969 50.585938 13.230469 50.585938 L 47.628906 50.585938 C 48.691406 50.585938 49.527344 49.75 49.527344 48.6875 L 49.527344 48.128906 C 49.527344 49.191406 48.691406 50.027344 47.628906 50.027344 L 13.230469 50.027344 C 12.167969 50.027344 11.335938 49.191406 11.335938 48.128906 Z M 11.335938 48.128906 "/>
<path style=" stroke:none;fill-rule:nonzero;fill:rgb(0%,0%,0%);fill-opacity:0.235294;" d="M 13.230469 11.910156 C 12.167969 11.910156 11.335938 12.742188 11.335938 13.804688 L 11.335938 14.796875 C 11.335938 13.734375 12.167969 12.902344 13.230469 12.902344 L 47.628906 12.902344 C 48.691406 12.902344 49.527344 13.734375 49.527344 14.796875 L 49.527344 13.804688 C 49.527344 12.742188 48.691406 11.910156 47.628906 11.910156 Z M 51.023438 14.722656 L 49.527344 16.222656 L 49.527344 17.214844 L 51.027344 15.714844 L 51.027344 14.796875 C 51.027344 14.773438 51.023438 14.746094 51.023438 14.722656 Z M 9.835938 48.203125 L 9.835938 49.195312 C 9.835938 51.0625 11.363281 52.59375 13.230469 52.59375 L 47.628906 52.59375 C 49.496094 52.59375 51.027344 51.0625 51.027344 49.195312 L 51.027344 48.203125 C 51.027344 50.070312 49.496094 51.601562 47.628906 51.601562 L 13.230469 51.601562 C 11.363281 51.601562 9.835938 50.070312 9.835938 48.203125 Z M 9.835938 48.203125 "/>
<path style="fill:none;stroke-width:11.338583;stroke-linecap:round;stroke-linejoin:round;stroke:rgb(12.941177%,12.941177%,12.941177%);stroke-opacity:1;stroke-miterlimit:4;" d="M 400.001193 312.48986 C 343.549888 312.48986 297.373193 358.666555 297.373193 415.11786 L 297.373193 1455.097342 C 297.373193 1511.666746 343.549888 1557.843441 400.001193 1557.843441 L 1439.980675 1557.843441 C 1496.43198 1557.843441 1542.726774 1511.666746 1542.726774 1455.097342 L 1542.726774 902.039891 L 1497.376771 947.389894 L 1497.376771 1455.097342 C 1497.376771 1487.22026 1472.103593 1512.493439 1439.980675 1512.493439 L 400.001193 1512.493439 C 367.878275 1512.493439 342.723195 1487.22026 342.723195 1455.097342 L 342.723195 415.11786 C 342.723195 382.994942 367.878275 357.839863 400.001193 357.839863 L 1439.980675 357.839863 C 1472.103593 357.839863 1497.376771 382.994942 1497.376771 415.11786 L 1497.376771 488.221119 L 1542.726774 442.871117 L 1542.726774 415.11786 C 1542.726774 358.666555 1496.43198 312.48986 1439.980675 312.48986 Z M 400.001193 312.48986 " transform="matrix(0.0330761,0,0,0.0330761,0,0)"/>
</g>
</svg>
